X:1
T:James Gibb editions
T:James Gibb editions
T:Io son fenice - Vecchi
T:#
%%score [ 1 2 3 4 ]
L:1/8
Q:1/4=96
M:4/4
K:Ab
V:1 treble nm="Soprano"
V:2 treble nm="Alto"
V:3 treble-8 nm="Tenor"
V:4 bass nm="Bass"
V:1
"^Orazio Vecchi\n(1550-1605)""^Io son fenice" z8 | A4 F3 G | A4 E4 | z2 A2 G2 F2- | FF E2 E4 | %5
w: |Io son fe-|ni- ce,|e voi se\-|* te la tram-|
 E2 E2 F4- | F4 E4 | E4 F4 | D8 | C8 :| z2 F2- FF F2 | F2 F2 _G4- | G2 A2 B2 A2 | A4 A2 F2- | %14
w: ma Che m'ar\-|* de~a|dram- ma|dram-|ma.|Ma * la mor-|te m'è dol\-|* ce si gra-|di- ta Che|
 FF F2 _G2 F2 | A8 | A4 z2 A2 | G2 F2 G4 | F2 F2 _G2 E2 | F4 F4 | z2 F2 _G2 E2 | F8 | F4 z2 F2- | %23
w: * per an- co mo-|ri-|re ri-|tor- no~in vi-|ta, ri- tor- no~in|vi- ta,|ri- tor- no~in|vi-|ta, Che|
 FF F2 _G2 F2 | A8 | A4 z2 A2 | G2 F2 G4 | F2 F2 _G2 E2 | F4 F4 | %29
w: * per an- co mo-|ri-|re ri-|tor- no~in vi-|ta, ri- tor- no~in|vi- ta,|
 z2[Q:1/4=94] F2[Q:1/4=92] _G2[Q:1/4=90] E2 |[Q:1/4=85] F8 |[Q:1/4=82] F8 |] %32
w: ri- tor- no~in|vi-|ta.|
V:2
 z8 | z2 C2 A,3 B, | C4 C4 | z2 F2 E2 D2- | DD C2 B,4 | C2 C2 D4- | D4 C4 | C4 C4 | F8 | F8 :| %10
w: |Io son fe-|ni- ce,|e voi se\-|* te la tram-|ma Che m'ar\-|* de~a|dram- ma|dram-|ma.|
 z2 C2- CC C2 | D2 C2 D4- | D2 F2 E2 E2 | F4 F2 D2- | DD D2 B,2 D2 | E2 E2 F4- | F2 F2 E2 C2 | %17
w: Ma * la mor-|te m'è dol\-|* ce si gra-|di- ta Che|* per an- co mo-|rir ri- tor\-|* no~in vi- ta,|
 z2 C2- CC C2 | D2 C2 E4 | D4 z2 C2 | D2 B,2 E2 CC | A,2 D2 C4 | B,4 z2 D2- | DD D2 B,2 D2 | %24
w: Che * per an-|co mo- ri-|re, per|an- co mo- rir ri-|tor- no~in vi-|ta, Che|* per an- co mo-|
 E2 E2 F4- | F2 F2 E2 C2 | z2 C2- CC C2 | (D2 C2) E4 | D4 z2 C2 | D2 B,2 E2 CC | A,2 D2 C4 | B,8 |] %32
w: rir ri- tor\-|* no~in vi- ta|Che * per an-|co * mo-|rir ri-|tor- no~in vi- ta, ri-|tor- no~in vi-|ta.|
V:3
 c4 A3 B | c4 d2 d2 | e4 z2 c2 | c6 A2- | AA A2 G4 | A4 z2 A2 | A4 A4 | A8 | F4 B4- | B4 =A4 :| %10
w: Io son fe-|ni- ce, e|voi, e|voi se\-|* te la tram-|ma Che|m'ar- de~a|dram-|ma dram\-|* ma.|
 z2 A2- AA A2 | B2 c2 B4- | B2 c2 B2 c2 | d4 d4 | z8 | z2 c2- cc c2 | d2 c2 c2 f2 | =e2 f4 e2 | %18
w: Ma * la mor-|te m'è dol\-|* ce si gra-|di- ta||Che * per an-|co mo- rir ri-|tor- no~in vi-|
 f2 F2 E2 A2 | (AF B4 A2) | (B4 E2) A2 | F2 B4 =A2 | B4 z4 | z8 | z2 c2- cc c2 | d2 c2 c2 f2 | %26
w: ta, ri- tor- no~in|vi\- * * *|ta, * ri-|tor- no~in vi-|ta,||Che * per an-|co mo- rir ri-|
 =e2 f4 e2 | f2 F2 E2 A2 | (AF B4 A2) | (B4 E2) A2 | F2 B4 =A2 | B8 |] %32
w: tor- no~in vi-|ta, ri- tor- no~in|vi\- * * *|ta, * ri-|tor- no~in vi-|ta.|
V:4
 A,4 F,3 G, | A,4 D,4 | z2 A,2 A,4 | z2 F,2 C,2 D,2- | D,D, A,,2 E,4 | A,,2 A,2 D,4- | D,4 A,,4 | %7
w: Io son fe-|ni- ce,|e voi,|e voi se\-|* te la tram-|ma Che m'ar\-|* de~a|
 A,,4 A,,4 | B,,8 | F,8 :| z2 F,2- F,F, F,2 | B,2 A,2 _G,4- | G,2 F,2 _G,2 A,2 | D,4 D,2 B,2- | %14
w: dram- ma|dram-|ma.|Ma * la mor-|te m'è dol\-|* ce si gra-|di- ta Che|
 B,B, B,2 E,2 B,2 | A,4 F,4 | (D,E, F,G, A,3 B,) | C2 F,2 C4 | F,4 z2 C,2 | D,2 B,,2 F,4 | %20
w: * per an- co mo-|rir ri-|tor\- * * * * *|no in vi-|ta, ri-|tor- no~in vi-|
 B,,4 z2 C,2 | D,2 B,,2 F,4 | B,,4 z2 B,2- | B,B, B,2 E,2 B,2 | A,4 F,4 | (D,E, F,G, A,3 B,) | %26
w: ta, ri-|tor- no~in vi-|ta, Che|* per an- co mo-|rir ri-|tor\- * * * * *|
 C2 F,2 C4 | F,4 z2 C,2 | D,2 B,,2 F,4 | B,,4 z2 C,2 | D,2 B,,2 F,4 | B,,8 |] %32
w: no in vi-|ta, ri-|tor- no~in vi-|ta, ri-|tor- no~in vi-|ta.|

